X:82
T:In the Door and Out the Window
B:Terry "Cuz" Teahan "Sliabh Luachra on Parade" 1980
Z:Patrick Cavanagh
M:2/4
L:1/8
R:Polka
K:D
| DF FE | DF A2 | Bc BA | FE E2 | 
DF AE | DF A2 | Bc Bc | ed d2 :| 
| fd dB | AF A2 | Bc BA | FE E2 | 
fd dB | AF A2 | Bc Bc | ed d2 :| 

